src/assets/icon/battle-points-gold.svg

<svg width="100" height="100" viewBox="0 0 100 100" fill="none" xmlns="http://www.w3.org/2000/svg">
<g id="battle-points-gold">
<g id="Group 387">
<path id="Vector" d="M50.3701 39.9998C69.937 39.9998 89.7402 33.1299 89.7402 19.9999C89.7402 6.86997 69.937 0 50.3701 0C30.8031 0 11 6.86997 11 19.9999C11 33.1299 30.8031 39.9998 50.3701 39.9998Z" fill="url(#paint0_linear_118_23)"/>
<path id="Vector_2" d="M11 40.0002C11 53.1302 30.8031 60.0001 50.3701 60.0001C69.937 60.0001 89.7402 53.1302 89.7402 40.0002V30.0002C89.7402 43.1302 69.937 50.0002 50.3701 50.0002C30.8031 50.0002 11 43.1302 11 30.0002V40.0002Z" fill="url(#paint1_linear_118_23)"/>
<path id="Vector_3" d="M11 59.9996C11 73.1295 30.8031 79.9995 50.3701 79.9995C69.937 79.9995 89.7402 73.1295 89.7402 59.9996V49.9996C89.7402 63.1296 69.937 69.9996 50.3701 69.9996C30.8031 69.9996 11 63.1296 11 49.9996V59.9996Z" fill="url(#paint2_linear_118_23)"/>
<path id="Vector_4" d="M11 80.0001C11 93.13 30.8031 100 50.3701 100C69.937 100 89.7402 93.13 89.7402 80.0001V70.0001C89.7402 83.1301 69.937 90 50.3701 90C30.8031 90 11 83.1301 11 70.0001V80.0001Z" fill="url(#paint3_linear_118_23)"/>
<path id="Vector 4 (Stroke)" fill-rule="evenodd" clip-rule="evenodd" d="M81.5126 15.018C80.3928 13.5641 79.0308 12.2866 77.7703 11.3292L78.2599 10.626C79.5746 11.6246 80.9989 12.9589 82.1773 14.4889C83.3536 16.0161 84.3042 17.7634 84.6336 19.585C84.966 21.4228 84.6607 23.313 83.3626 25.0814C82.0745 26.8363 79.8286 28.4454 76.3269 29.7938L75.992 28.9629C79.4131 27.6456 81.5042 26.1108 82.6668 24.527C83.8194 22.9568 84.0784 21.3135 83.7877 19.7065C83.4942 18.0834 82.6346 16.4746 81.5126 15.018Z" fill="url(#paint4_linear_118_23)"/>
<path id="Vector 5 (Stroke)" fill-rule="evenodd" clip-rule="evenodd" d="M17.6019 16.6294C18.6112 13.401 21.2181 10.9396 23.3301 9.66796L22.8695 8.89853C20.6537 10.2326 17.8723 12.8332 16.7814 16.3225C16.2331 18.0763 16.1135 20.0519 16.7081 22.188C17.302 24.3213 18.6006 26.5878 20.8486 28.9384L21.4478 28.3331C19.2831 26.0695 18.0785 23.9355 17.5347 21.9822C16.9917 20.0317 17.1001 18.2345 17.6019 16.6294Z" fill="url(#paint5_linear_118_23)"/>
<path id="Rectangle 141" d="M50.6281 5.19604L64.2562 19.0422L50.6281 32.8883L37 19.0422L50.6281 5.19604Z" fill="url(#paint6_linear_118_23)"/>
</g>
</g>
<defs>
<linearGradient id="paint0_linear_118_23" x1="50.3701" y1="0" x2="50.3701" y2="39.9998" gradientUnits="userSpaceOnUse">
<stop stop-color="#AB750F"/>
<stop offset="0.516" stop-color="#D8A956"/>
<stop offset="1" stop-color="#AB750F"/>
</linearGradient>
<linearGradient id="paint1_linear_118_23" x1="50.3701" y1="30.0002" x2="50.3701" y2="60.0001" gradientUnits="userSpaceOnUse">
<stop stop-color="#AB750F"/>
<stop offset="0.516" stop-color="#D8A956"/>
<stop offset="1" stop-color="#AB750F"/>
</linearGradient>
<linearGradient id="paint2_linear_118_23" x1="50.3701" y1="49.9996" x2="50.3701" y2="79.9995" gradientUnits="userSpaceOnUse">
<stop stop-color="#AB750F"/>
<stop offset="0.516" stop-color="#D8A956"/>
<stop offset="1" stop-color="#AB750F"/>
</linearGradient>
<linearGradient id="paint3_linear_118_23" x1="50.3701" y1="70.0001" x2="50.3701" y2="100" gradientUnits="userSpaceOnUse">
<stop stop-color="#AB750F"/>
<stop offset="0.516" stop-color="#D8A956"/>
<stop offset="1" stop-color="#AB750F"/>
</linearGradient>
<linearGradient id="paint4_linear_118_23" x1="77.5005" y1="9.36972" x2="91.9632" y2="17.2677" gradientUnits="userSpaceOnUse">
<stop stop-color="white" stop-opacity="0"/>
<stop offset="0.5" stop-color="white" stop-opacity="0.5"/>
<stop offset="1" stop-color="white"/>
</linearGradient>
<linearGradient id="paint5_linear_118_23" x1="23.8684" y1="7.86276" x2="11.5071" y2="10.2067" gradientUnits="userSpaceOnUse">
<stop stop-color="white" stop-opacity="0"/>
<stop offset="0.5" stop-color="white" stop-opacity="0.5"/>
<stop offset="1" stop-color="white"/>
</linearGradient>
<linearGradient id="paint6_linear_118_23" x1="35.4058" y1="3.57631" x2="65.8634" y2="33.5544" gradientUnits="userSpaceOnUse">
<stop stop-color="white" stop-opacity="0"/>
<stop offset="0.5" stop-color="white" stop-opacity="0.5"/>
<stop offset="1" stop-color="white"/>
</linearGradient>
</defs>
</svg>

<svg xmlns="http://www.w3.org/2000/svg" width="100" height="100" fill="none" xmlns:v="https://vecta.io/nano"><path d="M50.37 40c19.567 0 39.37-6.87 39.37-20S69.937 0 50.37 0 11 6.87 11 20s19.803 20 39.37 20z" fill="url(#A)"/><path d="M11 40c0 13.13 19.803 20 39.37 20s39.37-6.87 39.37-20V30c0 13.13-19.803 20-39.37 20S11 43.13 11 30v10z" fill="url(#B)"/><path d="M11 60c0 13.13 19.803 20 39.37 20s39.37-6.87 39.37-20V50c0 13.13-19.803 20-39.37 20S11 63.13 11 50v10z" fill="url(#C)"/><path d="M11 80c0 13.13 19.803 20 39.37 20s39.37-6.87 39.37-20V70c0 13.13-19.803 20-39.37 20S11 83.13 11 70v10z" fill="url(#D)"/><g fill-rule="evenodd"><path d="M81.513 15.018c-1.12-1.454-2.482-2.731-3.742-3.689l.49-.703c1.315.999 2.739 2.333 3.917 3.863s2.127 3.275 2.456 5.096a6.9 6.9 0 0 1-1.271 5.496c-1.288 1.755-3.534 3.364-7.036 4.712l-.335-.831c3.421-1.317 5.512-2.852 6.675-4.436 1.153-1.57 1.412-3.213 1.121-4.821-.293-1.623-1.153-3.232-2.275-4.688z" fill="url(#E)"/><path d="M17.602 16.629c1.009-3.228 3.616-5.69 5.728-6.961l-.461-.769c-2.216 1.334-4.997 3.935-6.088 7.424-.548 1.754-.668 3.729-.073 5.865s1.892 4.4 4.14 6.75l.599-.605c-2.165-2.264-3.369-4.398-3.913-6.351s-.435-3.748.067-5.353z" fill="url(#F)"/></g><path d="M50.628 5.196l13.628 13.846-13.628 13.846L37 19.042 50.628 5.196z" fill="url(#G)"/><defs><linearGradient id="A" x1="50.37" y1="0" x2="50.37" y2="40" href="#H"><stop stop-color="#ab750f"/><stop offset=".516" stop-color="#d8a956"/><stop offset="1" stop-color="#ab750f"/></linearGradient><linearGradient id="B" x1="50.37" y1="30" x2="50.37" y2="60" href="#H"><stop stop-color="#ab750f"/><stop offset=".516" stop-color="#d8a956"/><stop offset="1" stop-color="#ab750f"/></linearGradient><linearGradient id="C" x1="50.37" y1="50" x2="50.37" y2="80" href="#H"><stop stop-color="#ab750f"/><stop offset=".516" stop-color="#d8a956"/><stop offset="1" stop-color="#ab750f"/></linearGradient><linearGradient id="D" x1="50.37" y1="70" x2="50.37" y2="100" href="#H"><stop stop-color="#ab750f"/><stop offset=".516" stop-color="#d8a956"/><stop offset="1" stop-color="#ab750f"/></linearGradient><linearGradient id="E" x1="77.501" y1="9.37" x2="91.963" y2="17.268" href="#H"><stop stop-color="#fff" stop-opacity="0"/><stop offset=".5" stop-color="#fff" stop-opacity=".5"/><stop offset="1" stop-color="#fff"/></linearGradient><linearGradient id="F" x1="23.868" y1="7.863" x2="11.507" y2="10.207" href="#H"><stop stop-color="#fff" stop-opacity="0"/><stop offset=".5" stop-color="#fff" stop-opacity=".5"/><stop offset="1" stop-color="#fff"/></linearGradient><linearGradient id="G" x1="35.406" y1="3.576" x2="65.863" y2="33.554" href="#H"><stop stop-color="#fff" stop-opacity="0"/><stop offset=".5" stop-color="#fff" stop-opacity=".5"/><stop offset="1" stop-color="#fff"/></linearGradient><linearGradient id="H" gradientUnits="userSpaceOnUse"/></defs></svg>
